outputs/icons/device/uhf_rfid_sharp.svg

<svg xmlns="http://www.w3.org/2000/svg" width="1200" height="1200" fill="none"><g fill="#000" clip-path="url(#a)"><path d="M600.005 153.167A445.47 445.47 0 0 1 915.99 284.046l72.915-72.916a548.262 548.262 0 0 0-388.86-161.129A548.277 548.277 0 0 0 211.186 211.13l72.917 72.916a445.47 445.47 0 0 1 315.902-130.879M191.656 507.63v119.365a70.4 70.4 0 0 1-5.327 28.25 57.3 57.3 0 0 1-14.739 20.495 62.4 62.4 0 0 1-22.386 12.44 92.9 92.9 0 0 1-28.38 4.165 93.2 93.2 0 0 1-28.487-4.165 62.5 62.5 0 0 1-22.409-12.44 56.6 56.6 0 0 1-14.652-20.495 71.2 71.2 0 0 1-5.263-28.25v-119.43h38.069v119.43c0 12.085 2.865 20.91 8.594 26.465q8.593 8.339 24.041 8.315 15.49.001 24.062-8.315c5.714-5.54 8.579-14.365 8.594-26.465v-119.43zM379.004 692.405h-38.07v-79.19h-74.249v79.19h-38.07v-184.76h38.07v74.89h74.249v-74.89h38.07zM454.082 616.91h73.048l-.045-30.74H454.04v-47.675h82.285v-30.85H416.013v184.76h38.069z"/><path fill-rule="evenodd" d="M680.81 624.84h-30.335v67.63h-38.07V507.705h68.75a104 104 0 0 1 28.68 3.635 59.8 59.8 0 0 1 21.485 10.74 46.76 46.76 0 0 1 13.45 17.445 58.35 58.35 0 0 1 4.685 24.105c.085 6.15-.68 12.28-2.28 18.22-1.4 5.11-3.63 9.96-6.595 14.35a48.7 48.7 0 0 1-10.42 10.98 69.2 69.2 0 0 1-13.705 8.12l39.98 75.515v1.76h-40.82zm-30.335-30.855H681.2c4.455.085 8.89-.575 13.125-1.955a25.3 25.3 0 0 0 9.41-5.585 23.3 23.3 0 0 0 5.63-8.595 31.4 31.4 0 0 0 1.91-11.235q.001-13.059-7.43-20.56-7.439-7.499-22.775-7.475h-30.595z"/><path d="M821.28 616.91h73.045v-30.74H821.28v-47.675h82.24v-30.85H783.21v184.76h38.07zM975.135 692.405h-38.07v-184.76h38.07z"/><path fill-rule="evenodd" d="M1008.74 507.65v184.76l56.505.215a90.4 90.4 0 0 0 34.37-6.445 77.1 77.1 0 0 0 26.835-17.96 80.3 80.3 0 0 0 17.38-27.8 100.4 100.4 0 0 0 6.165-35.965v-8.38a100 100 0 0 0-6.23-36.05 82.3 82.3 0 0 0-17.315-27.925 76.8 76.8 0 0 0-26.64-18.005 89 89 0 0 0-34.225-6.445zm38.07 154.19V538.48l18.755.04c14.995-.015 26.385 4.83 34.16 14.525s11.665 23.935 11.665 42.71v8.595q-.021 27.669-11.795 42.58c-7.85 9.94-19.305 14.91-34.375 14.91z"/><path d="M692.11 377.653A239.9 239.9 0 0 0 600 359.4a239.875 239.875 0 0 0-170.153 70.468l-72.916-72.917A342.76 342.76 0 0 1 600 256.277a342.758 342.758 0 0 1 243.07 100.674l-72.915 72.917a239.9 239.9 0 0 0-78.045-52.215M600.01 1046.89a445.4 445.4 0 0 1-171.055-33.91 445.5 445.5 0 0 1-144.932-96.97l-72.917 72.915a548.3 548.3 0 0 0 178.354 119.36 548.3 548.3 0 0 0 210.505 41.77 548.25 548.25 0 0 0 210.505-41.77 548.3 548.3 0 0 0 178.355-119.36L915.91 916.01a445.5 445.5 0 0 1-144.895 96.955 445.5 445.5 0 0 1-171.005 33.925"/><path d="M507.89 822.38A239.9 239.9 0 0 0 600 840.645a239.9 239.9 0 0 0 170.155-70.49l72.915 72.94a342.8 342.8 0 0 1-111.49 74.585A342.7 342.7 0 0 1 600 943.77a342.7 342.7 0 0 1-131.578-26.09 342.8 342.8 0 0 1-111.491-74.585l72.916-72.94a239.9 239.9 0 0 0 78.043 52.225"/></g><defs><clipPath id="a"><path fill="#fff" d="M0 0h1200v1200H0z"/></clipPath></defs></svg>

<svg width="1200" height="1200" viewBox="0 0 1200 1200" fill="none" xmlns="http://www.w3.org/2000/svg"><g clip-path="url(#clip0_833_2093)"><path d="M600.005 153.167C658.7 153.089 716.83 164.612 771.06 187.073C825.285 209.534 874.54 242.489 915.99 284.046L988.905 211.13C937.9 159.98 877.29 119.413 810.555 91.761C743.82 64.109 672.28 49.917 600.045 50.001C527.81 49.917 456.271 64.109 389.538 91.761C322.804 119.413 262.193 159.98 211.186 211.13L284.103 284.046C325.543 242.5 374.784 209.55 428.995 187.089C483.207 164.629 541.325 153.1 600.005 153.167Z" fill="black"/><path d="M191.656 507.63V626.995C191.842 636.675 190.029 646.295 186.329 655.245C183.001 663.085 177.966 670.09 171.59 675.74C165.067 681.39 157.445 685.625 149.204 688.18C140.017 691.03 130.443 692.435 120.824 692.345C111.17 692.44 101.559 691.035 92.337 688.18C84.089 685.625 76.46 681.39 69.928 675.74C63.566 670.095 58.557 663.09 55.276 655.245C51.619 646.285 49.828 636.67 50.013 626.995V507.565H88.082V626.995C88.082 639.08 90.947 647.905 96.676 653.46C102.405 659.02 110.418 661.79 120.717 661.775C131.043 661.775 139.064 659.005 144.779 653.46C150.493 647.92 153.358 639.095 153.373 626.995V507.565L191.656 507.63Z" fill="black"/><path d="M379.004 692.405H340.934V613.215H266.685V692.405H228.615V507.645H266.685V582.535H340.934V507.645H379.004V692.405Z" fill="black"/><path d="M454.082 616.91H527.13L527.085 586.17H454.04V538.495H536.325V507.645H416.013V692.405H454.082V616.91Z" fill="black"/><path fill-rule="evenodd" d="M680.81 624.84H650.475V692.47H612.405V507.705H681.155C690.84 507.575 700.49 508.8 709.835 511.34C717.65 513.43 724.96 517.085 731.32 522.08C737.13 526.74 741.74 532.725 744.77 539.525C748.025 547.135 749.62 555.355 749.455 563.63C749.54 569.78 748.775 575.91 747.175 581.85C745.775 586.96 743.545 591.81 740.58 596.2C737.7 600.38 734.185 604.085 730.16 607.18C725.92 610.405 721.32 613.13 716.455 615.3L756.435 690.815V692.575H715.615L680.81 624.84ZM650.475 593.985H681.2C685.655 594.07 690.09 593.41 694.325 592.03C697.83 590.875 701.045 588.97 703.735 586.445C706.23 584.035 708.15 581.1 709.365 577.85C710.68 574.255 711.33 570.445 711.275 566.615C711.275 557.91 708.8 551.055 703.845 546.055C698.885 541.055 691.295 538.565 681.07 538.58H650.475V593.985Z" fill="black"/><path d="M821.28 616.91H894.325V586.17H821.28V538.495H903.52V507.645H783.21V692.405H821.28V616.91Z" fill="black"/><path d="M975.135 692.405H937.065V507.645H975.135V692.405Z" fill="black"/><path fill-rule="evenodd" d="M1008.74 507.65V692.41L1065.245 692.625C1077.01 692.735 1088.685 690.545 1099.615 686.18C1109.73 682.155 1118.875 676.03 1126.45 668.22C1134.095 660.245 1140.01 650.785 1143.83 640.42C1148.065 628.91 1150.155 616.72 1149.995 604.455V596.075C1150.155 583.78 1148.04 571.56 1143.765 560.025C1139.93 549.65 1134.04 540.15 1126.45 532.1C1118.94 524.285 1109.86 518.15 1099.81 514.095C1088.94 509.715 1077.31 507.525 1065.585 507.65H1008.74ZM1046.81 661.84V538.48L1065.565 538.52C1080.56 538.505 1091.95 543.35 1099.725 553.045C1107.5 562.74 1111.39 576.98 1111.39 595.755V604.35C1111.375 622.795 1107.445 636.99 1099.595 646.93C1091.745 656.87 1080.29 661.84 1065.22 661.84H1046.81Z" fill="black"/><path d="M692.11 377.653C662.91 365.56 631.605 359.357 600 359.4C568.395 359.357 537.095 365.56 507.89 377.653C478.691 389.746 452.168 407.491 429.847 429.868L356.931 356.951C388.82 324.988 426.708 299.64 468.422 282.363C510.135 265.087 554.85 256.221 600 256.277C645.15 256.221 689.865 265.087 731.58 282.363C773.295 299.64 811.18 324.988 843.07 356.951L770.155 429.868C747.835 407.491 721.31 389.746 692.11 377.653Z" fill="black"/><path d="M600.01 1046.89C541.315 1046.965 483.182 1035.445 428.955 1012.98C374.727 990.52 325.473 957.565 284.023 916.01L211.106 988.925C262.115 1040.07 322.727 1080.635 389.46 1108.285C456.192 1135.94 527.73 1150.135 599.965 1150.055C672.2 1150.135 743.74 1135.94 810.47 1108.285C877.205 1080.635 937.815 1040.07 988.825 988.925L915.91 916.01C874.47 957.555 825.23 990.505 771.015 1012.965C716.805 1035.425 658.69 1046.955 600.01 1046.89Z" fill="black"/><path d="M507.89 822.38C537.09 834.475 568.395 840.685 600 840.645C631.61 840.685 662.91 834.475 692.11 822.38C721.31 810.285 747.835 792.535 770.155 770.155L843.07 843.095C811.18 875.055 773.295 900.405 731.58 917.68C689.865 934.96 645.15 943.825 600 943.77C554.85 943.825 510.135 934.96 468.422 917.68C426.708 900.405 388.82 875.055 356.931 843.095L429.847 770.155C452.167 792.535 478.69 810.285 507.89 822.38Z" fill="black"/></g><defs><clipPath id="clip0_833_2093"><path width="24" fill="white" d="M0 0H1200V1200H0V0z"/></clipPath></defs></svg>
